X:1315
T:Taps
C:anon.
O:USA
Z:Transcribed by Frank Nordberg - http://www.musicaviva.com
%http://www.musicaviva.com/abc/tunes/usa/taps.abc
S:Frank Nordberg <frnordbe@online.no> abcusers 2001-9-13
V:1 % Program 1 56 %Trumpet
M:C
L:1/8
Q:1/4=48
K:C
"_mf"G>G|"_cresc."Hc6 G>c|He6 G>c|He2 G>c|He2 G>c|
w:Day is done,_ Gone the sun,_ From the lakes, From the hills, From the
He6 c>e|"_f   dim."g6 e>c|"_   f"G6 G>G|"_morendo"Hc6|]
w:sky._ All is well._ Safe-ly rest._ God is nigh._
W:
W:Day is done,
W:Gone the sun,
W:From the lakes,
W:From the hills,
W:From the sky.
W:All is well.
W:Safely rest.
W:God is nigh.
W:
W:
W:  From Musica Viva - http://www.musicaviva.com
W:  the Internet center for free sheet music downloads.
To subscribe/unsubscribe, point your browser to: http://www.tullochgorm.com/lists.html
